elementary-xfce/actions/32/system-lock-screen.svg

<?xml version="1.0" encoding="UTF-8" standalone="no"?>
<svg
   version="1.1"
   width="32"
   height="32"
   id="svg4248"
   sodipodi:docname="system-lock-screen.svg"
   inkscape:version="1.2.2 (b0a8486541, 2022-12-01)"
   xmlns:inkscape="http://www.inkscape.org/namespaces/inkscape"
   xmlns:sodipodi="http://sodipodi.sourceforge.net/DTD/sodipodi-0.dtd"
   xmlns:xlink="http://www.w3.org/1999/xlink"
   xmlns="http://www.w3.org/2000/svg"
   xmlns:svg="http://www.w3.org/2000/svg"
   xmlns:rdf="http://www.w3.org/1999/02/22-rdf-syntax-ns#"
   xmlns:cc="http://creativecommons.org/ns#"
   xmlns:dc="http://purl.org/dc/elements/1.1/">
  <sodipodi:namedview
     pagecolor="#ffffff"
     bordercolor="#666666"
     borderopacity="1"
     objecttolerance="10"
     gridtolerance="10"
     guidetolerance="10"
     inkscape:pageopacity="0"
     inkscape:pageshadow="2"
     inkscape:window-width="1474"
     inkscape:window-height="890"
     id="namedview29"
     showgrid="false"
     inkscape:zoom="17.52299"
     inkscape:cx="8.7028527"
     inkscape:cy="22.342077"
     inkscape:window-x="444"
     inkscape:window-y="120"
     inkscape:window-maximized="0"
     inkscape:current-layer="svg4248"
     inkscape:document-rotation="0"
     inkscape:pagecheckerboard="0"
     inkscape:showpageshadow="2"
     inkscape:deskcolor="#d1d1d1" />
  <defs
     id="defs4250">
    <linearGradient
       id="linearGradient4011-4">
      <stop
         id="stop4013-8"
         style="stop-color:#ffffff;stop-opacity:1"
         offset="0" />
      <stop
         id="stop4015-5"
         style="stop-color:#ffffff;stop-opacity:0.23529412"
         offset="0.507761" />
      <stop
         id="stop4017-6"
         style="stop-color:#ffffff;stop-opacity:0.15686275"
         offset="0.83456558" />
      <stop
         id="stop4019-1"
         style="stop-color:#ffffff;stop-opacity:0.39215687"
         offset="1" />
    </linearGradient>
    <linearGradient
       id="linearGradient3820-7-2-2">
      <stop
         id="stop3822-2-6-36"
         style="stop-color:#3d3d3d;stop-opacity:1"
         offset="0" />
      <stop
         id="stop3864-8-7-6"
         style="stop-color:#686868;stop-opacity:0.49803922"
         offset="0.5" />
      <stop
         id="stop3824-1-2-4"
         style="stop-color:#686868;stop-opacity:0"
         offset="1" />
    </linearGradient>
    <linearGradient
       y2="44.340794"
       x2="71.204407"
       y1="6.2375584"
       x1="71.204407"
       gradientTransform="matrix(0.7297297,0,0,0.72972954,-36.346081,-2.5039311)"
       gradientUnits="userSpaceOnUse"
       id="linearGradient3540"
       xlink:href="#linearGradient4011-4" />
    <linearGradient
       inkscape:collect="always"
       xlink:href="#linearGradient930"
       id="linearGradient932"
       x1="10.860361"
       y1="2.9666989"
       x2="10.860361"
       y2="20.846098"
       gradientUnits="userSpaceOnUse"
       gradientTransform="matrix(1.45,0,0,1.45,-1.3999995,-1.4000002)" />
    <linearGradient
       inkscape:collect="always"
       id="linearGradient930">
      <stop
         style="stop-color:#9bdb4d;stop-opacity:1"
         offset="0"
         id="stop926" />
      <stop
         style="stop-color:#68b723;stop-opacity:1"
         offset="1"
         id="stop928" />
    </linearGradient>
    <radialGradient
       gradientTransform="matrix(0.17524541,0,0,0.05574586,-1.376811,18.121549)"
       gradientUnits="userSpaceOnUse"
       xlink:href="#linearGradient3820-7-2-2"
       id="radialGradient4277"
       fy="186.17059"
       fx="99.157013"
       r="62.769119"
       cy="186.17059"
       cx="99.157013" />
  </defs>
  <metadata
     id="metadata4253">
    <rdf:RDF>
      <cc:Work
         rdf:about="">
        <dc:format>image/svg+xml</dc:format>
        <dc:type
           rdf:resource="http://purl.org/dc/dcmitype/StillImage" />
      </cc:Work>
    </rdf:RDF>
  </metadata>
  <path
     d="m 27,28.499785 a 11,3.4991173 0 1 1 -21.9999996,0 11,3.4991173 0 1 1 21.9999996,0 z"
     id="path3818-0-2"
     style="fill:url(#radialGradient4277);fill-opacity:1;stroke:none;stroke-width:1" />
  <path
     style="color:#000000;display:inline;overflow:visible;visibility:visible;fill:url(#linearGradient932);fill-opacity:1;fill-rule:nonzero;stroke:none;stroke-width:1;marker:none;enable-background:accumulate;stroke-dasharray:none"
     id="path2555-3"
     d="m 16.000001,1.4999999 c -8.0005983,0 -14.5000008,6.4993986 -14.5000008,14.4999981 0,8.000603 6.4994025,14.500003 14.5000008,14.500002 C 24.000599,30.5 30.500008,24.000601 30.5,15.999998 30.5,7.9993985 24.000599,1.4999999 16.000001,1.4999999 Z" />
  <path
     style="color:#000000;display:inline;overflow:visible;visibility:visible;opacity:0.3;fill:none;stroke:url(#linearGradient3540);stroke-width:0.999999;stroke-linecap:round;stroke-linejoin:round;stroke-miterlimit:4;stroke-dasharray:none;stroke-dashoffset:0;stroke-opacity:1;marker:none;enable-background:accumulate"
     id="path8655-4"
     d="m 29.500001,15.999517 c 0,7.456083 -6.044601,13.500475 -13.499829,13.500475 -7.4559114,0 -13.500173,-6.04446 -13.500173,-13.500475 0,-7.4557374 6.0442616,-13.4995175 13.500173,-13.4995175 7.455228,0 13.499829,6.0437801 13.499829,13.4995175 z" />
  <path
     style="color:#000000;clip-rule:nonzero;display:inline;overflow:visible;visibility:visible;opacity:0.5;isolation:auto;mix-blend-mode:normal;color-interpolation:sRGB;color-interpolation-filters:linearRGB;solid-color:#000000;solid-opacity:1;fill:none;fill-opacity:1;fill-rule:nonzero;stroke:#206b00;stroke-width:1;stroke-linecap:round;stroke-linejoin:round;stroke-miterlimit:4;stroke-dasharray:none;stroke-dashoffset:0;stroke-opacity:1;marker:none;color-rendering:auto;image-rendering:auto;shape-rendering:auto;text-rendering:auto;enable-background:accumulate"
     id="path2555-6-0"
     d="M 16.000002,1.5 C 7.999402,1.5 1.5,7.9993994 1.5,16.000001 c 0,8.000599 6.499402,14.500002 14.500002,14.5 8.000597,0 14.500006,-6.499401 14.499998,-14.5 C 30.5,7.9993994 24.000599,1.5 16.000002,1.5 Z" />
  <path
     style="color:#000000;clip-rule:nonzero;display:inline;overflow:visible;visibility:visible;opacity:0.3;isolation:auto;mix-blend-mode:normal;color-interpolation:sRGB;color-interpolation-filters:linearRGB;solid-color:#000000;solid-opacity:1;fill:#1c2c38;fill-opacity:1;fill-rule:nonzero;stroke:none;stroke-width:1;stroke-linecap:round;stroke-linejoin:round;stroke-miterlimit:4;stroke-dasharray:none;stroke-dashoffset:0;stroke-opacity:1;marker:none;color-rendering:auto;image-rendering:auto;shape-rendering:auto;text-rendering:auto;enable-background:accumulate"
     d="m 15,9 c -1.662,0 -3,1.367643 -3,3.016972 V 16 h 1.999985 v -3.650498 c 0,-0.738137 0.593893,-1.349003 1.332031,-1.349003 h 1.335968 c 0.738138,0 1.332032,0.610866 1.332032,1.349003 V 16 H 20 V 12.016972 C 20,10.354972 18.661999,9 17,9 Z m -5,7 v 7 c 0,0.554 0.446,1 1,1 h 10 c 0.553999,0 1,-0.446 1,-1 v -7 z"
     id="path873"
     sodipodi:nodetypes="ssccssssccsssccssccc" />
  <path
     id="rect4382-7"
     style="color:#000000;clip-rule:nonzero;display:inline;overflow:visible;visibility:visible;isolation:auto;mix-blend-mode:normal;color-interpolation:sRGB;color-interpolation-filters:linearRGB;solid-color:#000000;solid-opacity:1;fill:#ffffff;fill-opacity:1;fill-rule:nonzero;stroke:none;stroke-width:1;stroke-linecap:round;stroke-linejoin:round;stroke-miterlimit:4;stroke-dasharray:none;stroke-dashoffset:0;stroke-opacity:1;marker:none;color-rendering:auto;image-rendering:auto;shape-rendering:auto;text-rendering:auto;enable-background:accumulate"
     d="M 15 8 C 13.338002 8 12 9.3682503 12 11.017578 L 12 15 L 11 15 C 10.446001 15 10 15.446001 10 16 L 10 22 C 10 22.553999 10.446001 23 11 23 L 21 23 C 21.553999 23 22 22.553999 22 22 L 22 16 C 22 15.446001 21.553999 15 21 15 L 20 15 L 20 11.017578 C 20 9.3555794 18.661997 8 17 8 L 15 8 z M 15.332031 10 L 16.667969 10 C 17.406106 10 18 10.611473 18 11.349609 L 18 15 L 14 15 L 14 11.349609 C 14 10.611473 14.593894 10 15.332031 10 z " />
</svg>

<?xml version="1.0" encoding="UTF-8" standalone="no"?>
<svg
   xmlns:dc="http://purl.org/dc/elements/1.1/"
   xmlns:cc="http://creativecommons.org/ns#"
   xmlns:rdf="http://www.w3.org/1999/02/22-rdf-syntax-ns#"
   xmlns:svg="http://www.w3.org/2000/svg"
   xmlns="http://www.w3.org/2000/svg"
   xmlns:xlink="http://www.w3.org/1999/xlink"
   xmlns:sodipodi="http://sodipodi.sourceforge.net/DTD/sodipodi-0.dtd"
   xmlns:inkscape="http://www.inkscape.org/namespaces/inkscape"
   version="1.1"
   width="32"
   height="32"
   id="svg4248"
   sodipodi:docname="system-lock-screen.svg"
   inkscape:version="1.0.2 (e86c870879, 2021-01-15)">
  <sodipodi:namedview
     pagecolor="#ffffff"
     bordercolor="#666666"
     borderopacity="1"
     objecttolerance="10"
     gridtolerance="10"
     guidetolerance="10"
     inkscape:pageopacity="0"
     inkscape:pageshadow="2"
     inkscape:window-width="1920"
     inkscape:window-height="1030"
     id="namedview29"
     showgrid="false"
     inkscape:zoom="17.52299"
     inkscape:cx="22.120215"
     inkscape:cy="8.6527792"
     inkscape:window-x="0"
     inkscape:window-y="0"
     inkscape:window-maximized="1"
     inkscape:current-layer="svg4248"
     inkscape:document-rotation="0" />
  <defs
     id="defs4250">
    <linearGradient
       id="linearGradient4011-4">
      <stop
         id="stop4013-8"
         style="stop-color:#ffffff;stop-opacity:1"
         offset="0" />
      <stop
         id="stop4015-5"
         style="stop-color:#ffffff;stop-opacity:0.23529412"
         offset="0.507761" />
      <stop
         id="stop4017-6"
         style="stop-color:#ffffff;stop-opacity:0.15686275"
         offset="0.83456558" />
      <stop
         id="stop4019-1"
         style="stop-color:#ffffff;stop-opacity:0.39215687"
         offset="1" />
    </linearGradient>
    <linearGradient
       x1="71.204407"
       y1="6.2375584"
       x2="71.204407"
       y2="44.340794"
       id="linearGradient3089"
       xlink:href="#linearGradient4011-4"
       gradientUnits="userSpaceOnUse"
       gradientTransform="matrix(0.72972969,0,0,0.72972969,-36.346075,-2.5039314)" />
    <radialGradient
       cx="0.96534902"
       cy="8.4497671"
       r="19.99999"
       fx="0.96534902"
       fy="8.4497671"
       id="radialGradient3092"
       xlink:href="#linearGradient2867-449-88-871-390-598-476-591-434-148-57-177-8-3-3-6-4-8-8-8"
       gradientUnits="userSpaceOnUse"
       gradientTransform="matrix(0,4.7500023,-5.0249359,-1.3352823e-7,58.459621,-17.585409)" />
    <linearGradient
       id="linearGradient3820-7-2-2">
      <stop
         id="stop3822-2-6-36"
         style="stop-color:#3d3d3d;stop-opacity:1"
         offset="0" />
      <stop
         id="stop3864-8-7-6"
         style="stop-color:#686868;stop-opacity:0.49803922"
         offset="0.5" />
      <stop
         id="stop3824-1-2-4"
         style="stop-color:#686868;stop-opacity:0"
         offset="1" />
    </linearGradient>
    <radialGradient
       cx="99.157013"
       cy="186.17059"
       r="62.769119"
       fx="99.157013"
       fy="186.17059"
       id="radialGradient3315"
       xlink:href="#linearGradient3820-7-2-2"
       gradientUnits="userSpaceOnUse"
       gradientTransform="matrix(0.17524541,0,0,0.05575992,-1.3768101,18.118568)" />
    <linearGradient
       id="linearGradient2867-449-88-871-390-598-476-591-434-148-57-177-8-3-3-6-4-8-8-8">
      <stop
         id="stop3750-1-0-7-6-6-1-3-9"
         style="stop-color:#ffcd7d;stop-opacity:1"
         offset="0" />
      <stop
         id="stop3752-3-7-4-0-32-8-923-0"
         style="stop-color:#fc8f36;stop-opacity:1"
         offset="0.26238" />
      <stop
         id="stop3754-1-8-5-2-7-6-7-1"
         style="stop-color:#e23a0e;stop-opacity:1"
         offset="0.704952" />
      <stop
         id="stop3756-1-6-2-6-6-1-96-6"
         style="stop-color:#ac441f;stop-opacity:1"
         offset="1" />
    </linearGradient>
    <radialGradient
       cx="0.96534902"
       cy="8.4497671"
       r="19.99999"
       fx="0.96534902"
       fy="8.4497671"
       id="radialGradient3092-3"
       xlink:href="#linearGradient2867-449-88-871-390-598-476-591-434-148-57-177-8-3-3-6-4-8-8-8-5"
       gradientUnits="userSpaceOnUse"
       gradientTransform="matrix(0,4.7500018,-5.0249358,-1.3352822e-7,58.459625,-17.585406)" />
    <linearGradient
       id="linearGradient2867-449-88-871-390-598-476-591-434-148-57-177-8-3-3-6-4-8-8-8-5">
      <stop
         id="stop3750-1-0-7-6-6-1-3-9-3"
         style="stop-color:#919caf;stop-opacity:1"
         offset="0" />
      <stop
         id="stop3752-3-7-4-0-32-8-923-0-7"
         style="stop-color:#68758e;stop-opacity:1"
         offset="0.26238" />
      <stop
         id="stop3754-1-8-5-2-7-6-7-1-9"
         style="stop-color:#485a6c;stop-opacity:1"
         offset="0.704952" />
      <stop
         id="stop3756-1-6-2-6-6-1-96-6-0"
         style="stop-color:#444c5c;stop-opacity:1"
         offset="1" />
    </linearGradient>
    <linearGradient
       y2="44.340794"
       x2="71.204407"
       y1="6.2375584"
       x1="71.204407"
       gradientTransform="matrix(0.7297297,0,0,0.72972954,-36.346081,-2.5039311)"
       gradientUnits="userSpaceOnUse"
       id="linearGradient3540"
       xlink:href="#linearGradient4011-4" />
  </defs>
  <metadata
     id="metadata4253">
    <rdf:RDF>
      <cc:Work
         rdf:about="">
        <dc:format>image/svg+xml</dc:format>
        <dc:type
           rdf:resource="http://purl.org/dc/dcmitype/StillImage" />
        <dc:title></dc:title>
      </cc:Work>
    </rdf:RDF>
  </metadata>
  <path
     d="m 27.000001,28.499422 a 11,3.4999999 0 1 1 -21.9999997,0 11,3.4999999 0 1 1 21.9999997,0 z"
     id="path3818-0-2"
     style="fill:url(#radialGradient3315);fill-opacity:1;stroke:none" />
  <path
     style="color:#000000;display:inline;overflow:visible;visibility:visible;fill:url(#radialGradient3092-3);fill-opacity:1;fill-rule:nonzero;stroke:none;stroke-width:1;marker:none;enable-background:accumulate"
     id="path2555-3"
     d="M 16.000002,1.5 C 7.999402,1.5 1.5,7.9993987 1.5,15.999997 1.5,24.0006 7.999402,30.500001 16.000002,30.5 24.0006,30.5 30.500008,24.0006 30.5,15.999997 30.5,7.9993987 24.0006,1.5 16.000002,1.5 Z" />
  <path
     style="color:#000000;display:inline;overflow:visible;visibility:visible;opacity:0.3;fill:none;stroke:url(#linearGradient3540);stroke-width:0.999999;stroke-linecap:round;stroke-linejoin:round;stroke-miterlimit:4;stroke-dasharray:none;stroke-dashoffset:0;stroke-opacity:1;marker:none;enable-background:accumulate"
     id="path8655-4"
     d="m 29.500001,15.999517 c 0,7.456083 -6.044601,13.500475 -13.499829,13.500475 -7.4559114,0 -13.500173,-6.04446 -13.500173,-13.500475 0,-7.4557374 6.0442616,-13.4995175 13.500173,-13.4995175 7.455228,0 13.499829,6.0437801 13.499829,13.4995175 z" />
  <path
     style="color:#000000;clip-rule:nonzero;display:inline;overflow:visible;visibility:visible;opacity:0.5;isolation:auto;mix-blend-mode:normal;color-interpolation:sRGB;color-interpolation-filters:linearRGB;solid-color:#000000;solid-opacity:1;fill:none;fill-opacity:1;fill-rule:nonzero;stroke:#223544;stroke-width:1;stroke-linecap:round;stroke-linejoin:round;stroke-miterlimit:4;stroke-dasharray:none;stroke-dashoffset:0;stroke-opacity:1;marker:none;color-rendering:auto;image-rendering:auto;shape-rendering:auto;text-rendering:auto;enable-background:accumulate"
     id="path2555-6-0"
     d="M 16.000002,1.5 C 7.999402,1.5 1.5,7.9993994 1.5,16.000001 c 0,8.000599 6.499402,14.500002 14.500002,14.5 8.000597,0 14.500006,-6.499401 14.499998,-14.5 C 30.5,7.9993994 24.000599,1.5 16.000002,1.5 Z" />
  <path
     style="color:#000000;clip-rule:nonzero;display:inline;overflow:visible;visibility:visible;opacity:0.3;isolation:auto;mix-blend-mode:normal;color-interpolation:sRGB;color-interpolation-filters:linearRGB;solid-color:#000000;solid-opacity:1;fill:#1c2c38;fill-opacity:1;fill-rule:nonzero;stroke:none;stroke-width:1;stroke-linecap:round;stroke-linejoin:round;stroke-miterlimit:4;stroke-dasharray:none;stroke-dashoffset:0;stroke-opacity:1;marker:none;color-rendering:auto;image-rendering:auto;shape-rendering:auto;text-rendering:auto;enable-background:accumulate"
     d="m 15,9 c -1.662,0 -3,1.367643 -3,3.016972 V 16 h 1.999985 v -3.650498 c 0,-0.738137 0.593893,-1.349003 1.332031,-1.349003 h 1.335968 c 0.738138,0 1.332032,0.610866 1.332032,1.349003 V 16 H 20 V 12.016972 C 20,10.354972 18.661999,9 17,9 Z m -5,7 v 7 c 0,0.554 0.446,1 1,1 h 10 c 0.553999,0 1,-0.446 1,-1 v -7 z"
     id="path873"
     sodipodi:nodetypes="ssccssssccsssccssccc" />
  <path
     style="color:#000000;clip-rule:nonzero;display:inline;overflow:visible;visibility:visible;isolation:auto;mix-blend-mode:normal;color-interpolation:sRGB;color-interpolation-filters:linearRGB;solid-color:#000000;solid-opacity:1;fill:#ffffff;fill-opacity:1;fill-rule:nonzero;stroke:none;stroke-width:1;stroke-linecap:round;stroke-linejoin:round;stroke-miterlimit:4;stroke-dasharray:none;stroke-dashoffset:0;stroke-opacity:1;marker:none;color-rendering:auto;image-rendering:auto;shape-rendering:auto;text-rendering:auto;enable-background:accumulate"
     d="m 15,8 c -1.662,0 -3,1.3676425 -3,3.016972 V 15 h 1.999985 v -3.650498 c 0,-0.738137 0.593893,-1.349003 1.332031,-1.349003 h 1.335968 c 0.738138,0 1.332032,0.610866 1.332032,1.349003 V 15 H 20 V 11.016972 C 20,9.3549716 18.661999,8 17,8 Z m -5,7 v 7 c 0,0.554 0.446,1 1,1 h 10 c 0.553999,0 1,-0.446 1,-1 v -7 z"
     id="rect4382-7"
     sodipodi:nodetypes="ssccssssccsssccssccc" />
</svg>
